symbolic/24x24/devices/drive-removable-media.svg

<svg xmlns="http://www.w3.org/2000/svg" width="24" height="24" version="1"><rect style="opacity:.2" width="20" height="16" x="-22.5" y="-20" rx="1" ry="1" transform="matrix(0 -1 -1 0 0 0)"/><rect style="fill:#8e8e8e" width="20" height="16" x="-22" y="-20" rx="1" ry="1" transform="matrix(0 -1 -1 0 0 0)"/><path style="opacity:.5" d="m12 6-4 5h8l-4-5zm-4 6v1h8v-1H8z"/><path style="fill:#fff;opacity:.2" d="M5 2c-.554 0-1 .446-1 1v.5c0-.554.446-1 1-1h14c.554 0 1 .446 1 1V3c0-.554-.446-1-1-1H5z"/></svg>

<svg xmlns="http://www.w3.org/2000/svg" width="24" height="24" version="1">
 <rect style="opacity:0.2" width="20" height="16" x="-22.5" y="-20" rx="1" ry="1" transform="matrix(0,-1,-1,0,0,0)"/>
 <rect style="fill:#8e8e8e" width="20" height="16" x="-22" y="-20" rx="1" ry="1" transform="matrix(0,-1,-1,0,0,0)"/>
 <path style="opacity:.5" d="M 12 6 L 8 11 L 16 11 L 12 6 z M 8 12 L 8 13 L 16 13 L 16 12 L 8 12 z"/>
 <path style="fill:#ffffff;opacity:0.2" d="m5 2c-0.554 0-1 0.446-1 1v0.5c0-0.554 0.446-1 1-1h14c0.554 0 1 0.446 1 1v-0.5c0-0.554-0.446-1-1-1h-14z"/>
</svg>
